configs/network-icons/shiden.svg

<svg width="30" height="30" viewBox="0 0 30 30" fill="none" xmlns="http://www.w3.org/2000/svg">
<path d="M21.6599 6.49694C19.1724 7.20561 15.5017 8.68787 12.1395 11.7262C8.76054 14.9063 11.0545 17.7424 11.0782 17.7706C11.0782 17.7706 9.83987 15.4868 12.8348 12.673C12.8729 12.6397 16.6961 9.33789 22.2563 7.75404C22.9652 7.55206 23.6819 7.38395 24.3865 7.25444L24.4354 7.24549L25.3305 5.79468L25.1108 5.81019C25.0969 5.81138 23.6999 5.91576 21.6599 6.49694V6.49694Z" fill="#5928B1"/>
<path d="M25.4867 2.431C24.914 1.94893 24.3419 1.56744 24.3362 1.56364L24.3016 1.54114L24.261 1.54593C24.2456 1.54792 22.7021 1.73783 20.5764 2.34348C16.773 3.42673 11.6579 5.64846 8.88825 10.0779C7.57262 12.09 8.63149 14.4976 8.63149 14.4976L8.59958 13.8848C8.59611 13.8198 8.4144 7.32892 21.7194 3.53839C22.884 3.20654 24.1348 2.90082 25.4376 2.62885L25.6657 2.58137L25.4867 2.431Z" fill="#764BC4"/>
<path d="M26.2909 3.27846C26.2738 3.28027 24.5234 3.46655 22.0849 4.16103C19.5042 4.89637 15.7463 6.32221 12.5015 8.93801C10.5881 10.4245 9.37708 12.2177 9.17882 13.8583C9.08158 14.659 10.0199 16.3585 10.0199 16.3585L9.82263 15.7548C9.81363 15.7273 8.97513 12.9777 13.2242 9.78737C15.605 7.99937 18.0862 6.77568 21.032 5.93661C22.5506 5.50399 24.0057 5.21981 25.6142 4.9192L25.6709 4.90862L25.6954 4.85617C25.8169 4.59562 26.3964 3.45464 26.4025 3.44322L26.4964 3.25745L26.2909 3.27846Z" fill="#764BC4"/>
<path d="M7.69502 11.6267C7.85531 9.05044 9.80637 6.67004 13.4984 4.54937C15.444 3.33461 17.6189 2.38023 19.9624 1.71255C21.95 1.14627 23.6301 0.977204 23.6301 0.977204L22.2789 0C22.2665 0.00148889 21.0212 0.154513 19.2415 0.661562C7.8301 3.91246 6.41593 9.51363 6.54217 11.7652C6.76321 15.6907 11.3857 18.4823 11.3857 18.4823C11.3857 18.4823 7.45646 15.4654 7.69502 11.6267V11.6267Z" fill="#BBA5E1"/>
<path d="M7.83635 23.5031C10.3239 22.7945 13.9945 21.3122 17.3568 18.2739C20.7358 15.0938 18.4419 12.2576 18.4181 12.2295C18.4181 12.2295 19.6564 14.5133 16.6614 17.3271C16.6234 17.3604 12.8003 20.6622 7.24003 22.246C6.53107 22.448 5.8144 22.6161 5.10986 22.7456L5.0609 22.7546L4.16577 24.2054L4.3855 24.1899C4.39941 24.1887 5.79639 24.0843 7.83635 23.5031V23.5031Z" fill="#5928B1"/>
<path d="M4.00965 27.5687C4.58239 28.0507 5.15448 28.4322 5.16021 28.436L5.19475 28.4585L5.23536 28.4537C5.25075 28.4517 6.79427 28.2618 8.92 27.6562C12.7234 26.5729 17.8384 24.3512 20.6082 19.9218C21.9238 17.9096 20.8649 15.5021 20.8649 15.5021L20.8968 16.1149C20.9003 16.1799 21.082 22.6707 7.777 26.4613C6.61236 26.7931 5.3616 27.0988 4.05877 27.3708L3.83069 27.4183L4.00965 27.5687Z" fill="#764BC4"/>
<path d="M3.20549 26.7212C3.22268 26.7194 4.97299 26.5332 7.41148 25.8387C9.99227 25.1033 13.7501 23.6775 16.9949 21.0617C18.9084 19.5753 20.1193 17.782 20.3176 16.1414C20.4148 15.3407 19.4765 13.6412 19.4765 13.6412L19.6738 14.2449C19.6828 14.2724 20.5213 17.022 16.2723 20.2124C13.8914 22.0003 11.4102 23.224 8.46444 24.0631C6.94582 24.4957 5.49071 24.7799 3.8822 25.0805L3.82554 25.0911L3.80098 25.1436C3.67949 25.4041 3.10004 26.5451 3.09398 26.5565L3 26.7422L3.20549 26.7212Z" fill="#764BC4"/>
<path d="M21.8016 18.3733C21.6414 20.9496 19.6903 23.33 15.9982 25.4507C14.0526 26.6654 11.8777 27.6198 9.53422 28.2875C7.54665 28.8538 5.86658 29.0228 5.86658 29.0228L7.21771 30C7.23015 29.9985 8.47553 29.8455 10.2551 29.3385C21.6665 26.0876 23.0807 20.4864 22.9545 18.2349C22.7335 14.3094 18.1109 11.5177 18.1109 11.5177C18.1109 11.5177 22.0402 14.5347 21.8016 18.3733V18.3733Z" fill="#BBA5E1"/>
</svg>

<svg xmlns="http://www.w3.org/2000/svg" fill="none" viewBox="0 0 30 30">
  <path fill="#5928B1" d="M21.66 6.497c-2.488.709-6.158 2.19-9.52 5.23-3.38 3.18-1.085 6.015-1.062 6.044 0 0-1.238-2.284 1.757-5.098.038-.033 3.861-3.335 9.421-4.919a23.23 23.23 0 0 1 2.13-.5l.05-.009.895-1.45-.22.015c-.014.001-1.411.106-3.451.687Z"/>
  <path fill="#764BC4" d="M25.487 2.431a14.53 14.53 0 0 0-1.15-.867l-.035-.023-.041.005c-.015.002-1.559.192-3.685.797-3.803 1.084-8.918 3.305-11.688 7.735-1.315 2.012-.257 4.42-.257 4.42l-.031-.613c-.004-.065-.186-6.556 13.12-10.347a53.657 53.657 0 0 1 3.718-.91l.228-.047-.18-.15Z"/>
  <path fill="#764BC4" d="M26.29 3.278c-.016.002-1.767.189-4.205.883-2.58.735-6.339 2.161-9.584 4.777-1.913 1.486-3.124 3.28-3.322 4.92-.097.801.84 2.5.84 2.5l-.196-.603c-.01-.028-.848-2.777 3.401-5.968 2.381-1.788 4.862-3.011 7.808-3.85 1.519-.433 2.974-.717 4.582-1.018l.057-.01.024-.053c.122-.26.701-1.401.707-1.413l.094-.186-.205.021Z"/>
  <path fill="#BBA5E1" d="M7.695 11.627c.16-2.577 2.111-4.957 5.803-7.078 1.946-1.214 4.12-2.169 6.464-2.836A23.559 23.559 0 0 1 23.63.977L22.28 0c-.012.001-1.258.155-3.038.662-11.411 3.25-12.826 8.852-12.7 11.103.221 3.926 4.844 6.717 4.844 6.717s-3.93-3.017-3.691-6.855Z"/>
  <path fill="#5928B1" d="M7.836 23.503c2.488-.709 6.159-2.19 9.52-5.23 3.38-3.18 1.086-6.015 1.062-6.043 0 0 1.238 2.283-1.757 5.097-.038.033-3.86 3.335-9.421 4.919-.709.202-1.426.37-2.13.5l-.05.009-.894 1.45.22-.015c.013-.001 1.41-.106 3.45-.687Z"/>
  <path fill="#764BC4" d="M4.01 27.569c.572.482 1.144.863 1.15.867l.035.023.04-.005c.016-.002 1.56-.192 3.685-.798 3.803-1.083 8.918-3.305 11.688-7.734 1.316-2.012.257-4.42.257-4.42l.032.613c.003.065.185 6.556-13.12 10.346a53.706 53.706 0 0 1-3.718.91l-.228.047.179.15Z"/>
  <path fill="#764BC4" d="M3.205 26.721c.018-.002 1.768-.188 4.206-.882 2.581-.736 6.34-2.162 9.584-4.777 1.913-1.487 3.124-3.28 3.323-4.92.097-.801-.841-2.5-.841-2.5l.197.603c.009.027.847 2.777-3.402 5.967-2.38 1.788-4.862 3.012-7.808 3.851-1.518.433-2.973.717-4.582 1.018l-.056.01-.025.053c-.122.26-.701 1.401-.707 1.413L3 26.741l.205-.02Z"/>
  <path fill="#BBA5E1" d="M21.802 18.373c-.16 2.577-2.112 4.957-5.804 7.078-1.945 1.214-4.12 2.169-6.464 2.837-1.987.566-3.667.735-3.667.735l1.35.977c.013-.002 1.259-.154 3.038-.662 11.411-3.25 12.826-8.852 12.7-11.103-.221-3.926-4.844-6.717-4.844-6.717s3.93 3.017 3.69 6.855Z"/>
</svg>
